X:44
T:Brendans
T:The Hags Purse
R:jig
S:Ceol Rince na h'Eireann Vol.1
M:6/8
L:1/8
K:Ador
B| ADD FED | A2 d cAF | GEE EDE | ~c2 d cAG |
ADD FED | A2 d cAF | GFG c2 G |1EDD D2 :|2 EDD DFA ||
~d2 e fdd | ged cAA | G2 E EDE | c2 d cAG |
Add fdd | ged cAA | GFG cGE |1 EDD DFA :|2 EDD D3 ||
